static/logos/2026/logo.svg

<svg width="180" height="200" viewBox="0 0 180 200" fill="none" xmlns="http://www.w3.org/2000/svg">
<path fill-rule="evenodd" clip-rule="evenodd" d="M90 0C85.5879 0 81.1743 1.14144 77.2196 3.42575L12.789 40.6371C4.87523 45.2071 0 53.655 0 62.7979V137.202C0 146.345 4.87523 154.793 12.789 159.363L77.2196 196.574C81.1743 198.859 85.5879 200 90 200C94.4136 200 98.8271 198.859 102.782 196.574L167.212 159.363C175.126 154.793 180 146.345 180 137.202V62.7979C180 53.655 175.126 45.2071 167.212 40.6371L102.782 3.42575C98.8271 1.14144 94.4136 0 90 0" fill="#231F20"/>
<path fill-rule="evenodd" clip-rule="evenodd" d="M89.8888 3.98389C93.6646 3.98389 97.3877 4.98318 100.658 6.8709L165.088 44.0822C171.734 47.9202 175.862 55.0745 175.862 62.7533V137.158C175.862 144.836 171.734 151.991 165.088 155.829L100.658 193.04C97.3877 194.929 93.6646 195.927 89.8888 195.927C86.1145 195.927 82.3913 194.929 79.1213 193.04L14.6906 155.829C8.04402 151.991 3.91599 144.836 3.91599 137.158V62.7533C3.91599 55.0745 8.04402 47.9202 14.6906 44.0822L79.1213 6.8709C82.3913 4.98318 86.1145 3.98389 89.8888 3.98389" fill="#d1a8ff"/>
<mask id="mask0_907_609" style="mask-type:luminance" maskUnits="userSpaceOnUse" x="3" y="3" width="173" height="193">
<path fill-rule="evenodd" clip-rule="evenodd" d="M89.8888 3.98389C93.6646 3.98389 97.3877 4.98318 100.658 6.8709L165.088 44.0823C171.734 47.9202 175.862 55.0745 175.862 62.7533V137.158C175.862 144.836 171.734 151.991 165.088 155.829L100.658 193.04C97.3877 194.929 93.6646 195.927 89.8888 195.927C86.1145 195.927 82.3913 194.929 79.1212 193.04L14.6906 155.829C8.04402 151.991 3.91599 144.836 3.91599 137.158V62.7533C3.91599 55.0745 8.04402 47.9202 14.6906 44.0823L79.1212 6.8709C82.3913 4.98318 86.1145 3.98389 89.8888 3.98389Z" fill="white"/>
</mask>
<g mask="url(#mask0_907_609)">
<path fill-rule="evenodd" clip-rule="evenodd" d="M12.6401 14.3999L11.5555 15.0161L12.6444 36.1084L30.9999 48.8443L29.8398 26.3303L12.6401 14.3999Z" fill="#B06BFF"/>
<path fill-rule="evenodd" clip-rule="evenodd" d="M-4.58207 23.8444L-5.66675 24.4605L-4.5778 45.5529L13.7777 58.2888L12.6176 35.7748L-4.58207 23.8444Z" fill="#B06BFF"/>
<path fill-rule="evenodd" clip-rule="evenodd" d="M29.8624 4.3999L28.7777 5.01607L29.8652 26.1098L48.2221 38.8443L47.0606 16.3317L29.8624 4.3999Z" fill="#B06BFF"/>
<path fill-rule="evenodd" clip-rule="evenodd" d="M47.0846 -5.6001L45.9999 -4.98255L47.0889 16.1089L65.4444 28.8443L64.2828 6.33124L47.0846 -5.6001Z" fill="#B06BFF"/>
<path fill-rule="evenodd" clip-rule="evenodd" d="M63.7513 -15.6001L62.6666 -14.9839L63.7555 6.10981L82.111 18.8443L80.9509 -3.66827L63.7513 -15.6001Z" fill="#B06BFF"/>
<path fill-rule="evenodd" clip-rule="evenodd" d="M80.9735 -25.0446L79.8888 -24.4284L80.9777 -3.33465L99.3332 9.39989L98.1731 -13.1127L80.9735 -25.0446Z" fill="#B06BFF"/>
<path fill-rule="evenodd" clip-rule="evenodd" d="M51.6004 106.555L69.8888 119.4L68.7356 96.6882L50.4444 83.8444L51.6004 106.555Z" fill="#B06BFF"/>
<path fill-rule="evenodd" clip-rule="evenodd" d="M32.1546 71.5541L50.4444 84.3999L49.2896 61.6887L30.9999 48.8444L32.1546 71.5541Z" fill="#B06BFF"/>
<path fill-rule="evenodd" clip-rule="evenodd" d="M17.1546 126.555L35.4444 139.4L34.291 116.69L15.9999 103.844L17.1546 126.555Z" fill="#B06BFF"/>
<path fill-rule="evenodd" clip-rule="evenodd" d="M-2.28981 90.9982L15.9999 103.844L14.8452 81.1336L-3.44453 68.2888L-2.28981 90.9982Z" fill="#B06BFF"/>
<path fill-rule="evenodd" clip-rule="evenodd" d="M34.3769 116.556L52.6666 129.4L51.5133 106.689L33.2221 93.8444L34.3769 116.556Z" fill="#B06BFF"/>
<path fill-rule="evenodd" clip-rule="evenodd" d="M14.9323 80.999L33.2221 93.8443L32.0675 71.1326L13.7777 58.2888L14.9323 80.999Z" fill="#B06BFF"/>
<path fill-rule="evenodd" clip-rule="evenodd" d="M-0.067583 135.999L18.2221 148.844L17.0674 126.133L-1.22231 113.289L-0.067583 135.999Z" fill="#B06BFF"/>
<path fill-rule="evenodd" clip-rule="evenodd" d="M68.8213 97.1102L87.111 109.955L85.9563 87.2452L67.6666 74.3999L68.8213 97.1102Z" fill="#B06BFF"/>
<path fill-rule="evenodd" clip-rule="evenodd" d="M49.3754 61.5555L67.6666 74.3999L66.5119 51.6887L48.2221 38.8444L49.3754 61.5555Z" fill="#B06BFF"/>
<path fill-rule="evenodd" clip-rule="evenodd" d="M86.0435 87.1102L104.333 99.9555L103.18 77.2438L84.8888 64.3999L86.0435 87.1102Z" fill="#B06BFF"/>
<path fill-rule="evenodd" clip-rule="evenodd" d="M66.599 51.5546L84.8888 64.3999L83.7342 41.6882L65.4444 28.8444L66.599 51.5546Z" fill="#B06BFF"/>
<path fill-rule="evenodd" clip-rule="evenodd" d="M102.71 77.1102L121 89.9555L119.845 67.2438L101.555 54.3999L102.71 77.1102Z" fill="#B06BFF"/>
<path fill-rule="evenodd" clip-rule="evenodd" d="M83.2657 41.5546L101.555 54.3999L100.401 31.6896L82.111 18.8444L83.2657 41.5546Z" fill="#B06BFF"/>
<path fill-rule="evenodd" clip-rule="evenodd" d="M119.932 67.6657L138.222 80.511L137.069 57.7993L118.778 44.9554L119.932 67.6657Z" fill="#B06BFF"/>
<path fill-rule="evenodd" clip-rule="evenodd" d="M100.488 32.1102L118.778 44.9555L117.626 22.2438L99.3333 9.3999L100.488 32.1102Z" fill="#B06BFF"/>
<path fill-rule="evenodd" clip-rule="evenodd" d="M137.155 57.6643L155.444 70.511L154.29 47.7993L136 34.9554L137.155 57.6643Z" fill="#B06BFF"/>
<path fill-rule="evenodd" clip-rule="evenodd" d="M117.71 22.1102L136 34.9555L134.845 12.2438L116.555 -0.600098L117.71 22.1102Z" fill="#B06BFF"/>
<path fill-rule="evenodd" clip-rule="evenodd" d="M154.377 47.6657L172.667 60.511L171.512 37.7993L153.222 24.9554L154.377 47.6657Z" fill="#B06BFF"/>
<path fill-rule="evenodd" clip-rule="evenodd" d="M134.932 12.1102L153.222 24.9555L152.067 2.24377L133.778 -10.6001L134.932 12.1102Z" fill="#B06BFF"/>
<path fill-rule="evenodd" clip-rule="evenodd" d="M171.599 37.6657L189.889 50.511L188.734 27.7993L170.444 14.9554L171.599 37.6657Z" fill="#B06BFF"/>
<path fill-rule="evenodd" clip-rule="evenodd" d="M152.155 2.6652L170.444 15.511L169.29 -7.20018L151 -20.0446L152.155 2.6652Z" fill="#B06BFF"/>
<path fill-rule="evenodd" clip-rule="evenodd" d="M71.0434 142.109L89.3332 154.955L88.1786 132.245L69.8888 119.4L71.0434 142.109Z" fill="#B06BFF"/>
<path fill-rule="evenodd" clip-rule="evenodd" d="M36.599 162.11L54.8888 174.955L53.7342 152.244L35.4444 139.4L36.599 162.11Z" fill="#B06BFF"/>
<path fill-rule="evenodd" clip-rule="evenodd" d="M53.8213 152.11L72.111 164.955L70.9563 142.244L52.6666 129.4L53.8213 152.11Z" fill="#B06BFF"/>
<path fill-rule="evenodd" clip-rule="evenodd" d="M19.3768 171.555L37.6666 184.4L36.5119 161.688L18.2221 148.844L19.3768 171.555Z" fill="#B06BFF"/>
<path fill-rule="evenodd" clip-rule="evenodd" d="M88.2657 132.11L106.555 144.955L105.401 122.244L87.111 109.4L88.2657 132.11Z" fill="#B06BFF"/>
<path fill-rule="evenodd" clip-rule="evenodd" d="M105.488 122.665L123.778 135.511L122.623 112.798L104.333 99.9554L105.488 122.665Z" fill="#B06BFF"/>
<path fill-rule="evenodd" clip-rule="evenodd" d="M122.71 112.665L141 125.511L139.847 102.8L121.555 89.9554L122.71 112.665Z" fill="#B06BFF"/>
<path fill-rule="evenodd" clip-rule="evenodd" d="M139.377 102.666L157.667 115.511L156.513 92.7993L138.222 79.9554L139.377 102.666Z" fill="#B06BFF"/>
<path fill-rule="evenodd" clip-rule="evenodd" d="M156.599 93.2213L174.889 106.067L173.734 83.3563L155.444 70.511L156.599 93.2213Z" fill="#B06BFF"/>
<path fill-rule="evenodd" clip-rule="evenodd" d="M173.821 83.2222L192.111 96.0665L190.956 73.3554L172.667 60.511L173.821 83.2222Z" fill="#B06BFF"/>
<path fill-rule="evenodd" clip-rule="evenodd" d="M55.9393 197.324L73.6641 209.4L74.3332 209.023L73.323 187.512L54.8888 174.955L55.9393 197.324Z" fill="#B06BFF"/>
<path fill-rule="evenodd" clip-rule="evenodd" d="M73.1616 187.324L90.8863 199.4L91.5555 199.023L90.5452 177.513L72.111 164.955L73.1616 187.324Z" fill="#B06BFF"/>
<path fill-rule="evenodd" clip-rule="evenodd" d="M158.717 137.88L176.44 149.955L177.111 149.578L176.101 128.067L157.667 115.511L158.717 137.88Z" fill="#7A0283"/>
<path fill-rule="evenodd" clip-rule="evenodd" d="M175.938 128.435L193.664 140.511L194.333 140.132L193.323 118.623L174.889 106.067L175.938 128.435Z" fill="#B06BFF"/>
<path fill-rule="evenodd" clip-rule="evenodd" d="M90.3823 177.325L108.107 189.4L108.778 189.024L107.766 167.512L89.3333 154.955L90.3823 177.325Z" fill="#219E87"/>
<path fill-rule="evenodd" clip-rule="evenodd" d="M107.605 167.325L125.329 179.4L126 179.023L124.988 157.513L106.555 144.955L107.605 167.325Z" fill="#E98B23"/>
<path fill-rule="evenodd" clip-rule="evenodd" d="M124.273 157.88L141.997 169.955L142.667 169.577L141.656 148.069L123.222 135.511L124.273 157.88Z" fill="#4B81B6"/>
<path fill-rule="evenodd" clip-rule="evenodd" d="M141.496 147.88L159.22 159.955L159.889 159.578L158.879 138.067L140.444 125.511L141.496 147.88Z" fill="#EAEAEA"/>
</g>
<path fill-rule="evenodd" clip-rule="evenodd" d="M122.489 128.578C119.763 129.556 116.681 130.044 113.244 130.044C109.452 130.044 105.674 129.348 101.911 127.956C98.1481 126.563 94.7852 124.474 91.8222 121.689L99.2889 112.711C101.363 114.489 103.659 115.941 106.178 117.067C108.696 118.193 111.17 118.756 113.6 118.756C116.326 118.756 118.356 118.252 119.689 117.244C121.022 116.237 121.689 114.874 121.689 113.156C121.689 112.267 121.496 111.496 121.111 110.844C120.726 110.193 120.163 109.615 119.422 109.111C118.681 108.607 117.793 108.133 116.756 107.689L113.333 106.222L105.778 103.022C104.296 102.43 102.859 101.659 101.467 100.711C100.074 99.763 98.8296 98.6519 97.7333 97.3778C96.637 96.1037 95.763 94.6222 95.1111 92.9333C94.4593 91.2445 94.1333 89.3333 94.1333 87.2C94.1333 84.8296 94.637 82.5926 95.6444 80.4889C96.6518 78.3852 98.0741 76.5482 99.9111 74.9778C101.748 73.4074 103.926 72.1778 106.444 71.2889C108.963 70.4 111.733 69.9556 114.756 69.9556C118.133 69.9556 121.467 70.6074 124.756 71.9111C128.044 73.2148 130.933 75.1111 133.422 77.6L126.756 85.8667C124.859 84.3852 122.963 83.2445 121.067 82.4445C119.17 81.6445 117.067 81.2445 114.756 81.2445C112.504 81.2445 110.711 81.7037 109.378 82.6222C108.044 83.5408 107.378 84.8296 107.378 86.4889C107.378 87.3778 107.6 88.1333 108.044 88.7556C108.489 89.3778 109.111 89.9408 109.911 90.4445C110.711 90.9482 111.644 91.4222 112.711 91.8667C113.778 92.3111 114.933 92.8 116.178 93.3333L123.644 96.3556C127.2 97.7778 130 99.7333 132.044 102.222C134.089 104.711 135.111 108 135.111 112.089C135.111 114.519 134.622 116.815 133.644 118.978C132.667 121.141 131.244 123.037 129.378 124.667C127.511 126.296 125.215 127.6 122.489 128.578ZM71.8667 128.444C69.5259 129.511 66.7555 130.044 63.5555 130.044C59.1111 130.044 55.3926 129.185 52.4 127.467C49.4074 125.748 46.9037 123.111 44.8889 119.556L53.7778 112.978C54.8444 114.933 56.0889 116.385 57.5111 117.333C58.9333 118.281 60.3852 118.756 61.8667 118.756C64.237 118.756 66.0296 118.03 67.2444 116.578C68.4593 115.126 69.0667 112.474 69.0667 108.622V71.0222H82.1333V109.689C82.1333 112.474 81.763 115.111 81.0222 117.6C80.2815 120.089 79.1555 122.252 77.6444 124.089C76.1333 125.926 74.2074 127.378 71.8667 128.444Z" fill="#231F20"/>
</svg>

<?xml version="1.0" encoding="UTF-8"?>
<svg id="Layer_1" xmlns="http://www.w3.org/2000/svg" xmlns:xlink="http://www.w3.org/1999/xlink" version="1.1" viewBox="0 0 180 200">
  <!-- Generator: Adobe Illustrator 30.0.0, SVG Export Plug-In . SVG Version: 2.1.1 Build 123)  -->
  <defs>
    <style>
      .st0 {
        mask: url(#mask);
      }

      .st1 {
        fill: #9b03a6;
      }

      .st1, .st2, .st3, .st4, .st5, .st6, .st7, .st8, .st9, .st10, .st11, .st12 {
        fill-rule: evenodd;
      }

      .st2 {
        fill: #4b81b6;
      }

      .st3 {
        fill: #fff;
      }

      .st4 {
        fill: #e98b23;
      }

      .st5 {
        fill: #231f20;
      }

      .st6 {
        fill: #fdbb12;
      }

      .st7 {
        fill: #d1a8ff;
      }

      .st8 {
        fill: #219e87;
      }

      .st9 {
        fill: #b06bff;
      }

      .st10 {
        fill: #eaeaea;
      }

      .st11 {
        fill: #ff007f;
      }

      .st12 {
        fill: #060;
      }
    </style>
    <mask id="mask" x="-5.7" y="-25" width="200" height="234.4" maskUnits="userSpaceOnUse">
      <g id="mask0_907_609">
        <path class="st3" d="M89.9,4c3.8,0,7.5,1,10.8,2.9l64.4,37.2c6.6,3.8,10.8,11,10.8,18.7v74.4c0,7.7-4.1,14.8-10.8,18.7l-64.4,37.2c-3.3,1.9-7,2.9-10.8,2.9s-7.5-1-10.8-2.9L14.7,155.8c-6.6-3.8-10.8-11-10.8-18.7V62.8c0-7.7,4.1-14.8,10.8-18.7L79.1,6.9c3.3-1.9,7-2.9,10.8-2.9Z"/>
      </g>
    </mask>
  </defs>
  <path class="st5" d="M90,0c-4.4,0-8.8,1.1-12.8,3.4L12.8,40.6C4.9,45.2,0,53.7,0,62.8v74.4c0,9.1,4.9,17.6,12.8,22.2l64.4,37.2c4,2.3,8.4,3.4,12.8,3.4s8.8-1.1,12.8-3.4l64.4-37.2c7.9-4.6,12.8-13,12.8-22.2V62.8c0-9.1-4.9-17.6-12.8-22.2L102.8,3.4c-4-2.3-8.4-3.4-12.8-3.4"/>
  <path class="st7" d="M89.9,4c3.8,0,7.5,1,10.8,2.9l64.4,37.2c6.6,3.8,10.8,11,10.8,18.7v74.4c0,7.7-4.1,14.8-10.8,18.7l-64.4,37.2c-3.3,1.9-7,2.9-10.8,2.9s-7.5-1-10.8-2.9L14.7,155.8c-6.6-3.8-10.8-11-10.8-18.7V62.8c0-7.7,4.1-14.8,10.8-18.7L79.1,6.9c3.3-1.9,7-2.9,10.8-2.9"/>
  <g class="st0">
    <g>
      <path class="st9" d="M12.6,14.4l-1.1.6,1.1,21.1,18.4,12.7-1.2-22.5L12.6,14.4Z"/>
      <path class="st9" d="M-4.6,23.8l-1.1.6,1.1,21.1,18.4,12.7-1.2-22.5L-4.6,23.8Z"/>
      <path class="st9" d="M29.9,4.4l-1.1.6,1.1,21.1,18.4,12.7-1.2-22.5L29.9,4.4Z"/>
      <path class="st9" d="M47.1-5.6l-1.1.6,1.1,21.1,18.4,12.7-1.2-22.5-17.2-11.9Z"/>
      <path class="st9" d="M63.8-15.6l-1.1.6,1.1,21.1,18.4,12.7-1.2-22.5-17.2-11.9Z"/>
      <path class="st9" d="M81-25l-1.1.6,1.1,21.1,18.4,12.7-1.2-22.5-17.2-11.9Z"/>
      <path class="st9" d="M51.6,106.6l18.3,12.8-1.2-22.7-18.3-12.8,1.2,22.7Z"/>
      <path class="st9" d="M32.2,71.6l18.3,12.8-1.2-22.7-18.3-12.8,1.2,22.7Z"/>
      <path class="st9" d="M17.2,126.6l18.3,12.8-1.2-22.7-18.3-12.8,1.2,22.7Z"/>
      <path class="st9" d="M-2.3,91l18.3,12.8-1.2-22.7-18.3-12.8,1.2,22.7Z"/>
      <path class="st9" d="M34.4,116.6l18.3,12.8-1.2-22.7-18.3-12.8,1.2,22.7Z"/>
      <path class="st9" d="M14.9,81l18.3,12.8-1.2-22.7-18.3-12.8,1.2,22.7Z"/>
      <path class="st9" d="M0,136l18.3,12.8-1.2-22.7L-1.2,113.3,0,136Z"/>
      <path class="st9" d="M68.8,97.1l18.3,12.8-1.2-22.7-18.3-12.8,1.2,22.7Z"/>
      <path class="st9" d="M49.4,61.6l18.3,12.8-1.2-22.7-18.3-12.8,1.2,22.7Z"/>
      <path class="st9" d="M86,87.1l18.3,12.8-1.2-22.7-18.3-12.8,1.2,22.7Z"/>
      <path class="st9" d="M66.6,51.6l18.3,12.8-1.2-22.7-18.3-12.8,1.2,22.7Z"/>
      <path class="st9" d="M102.7,77.1l18.3,12.8-1.2-22.7-18.3-12.8,1.2,22.7Z"/>
      <path class="st9" d="M83.3,41.6l18.3,12.8-1.2-22.7-18.3-12.8,1.2,22.7Z"/>
      <path class="st9" d="M119.9,67.7l18.3,12.8-1.2-22.7-18.3-12.8,1.2,22.7Z"/>
      <path class="st9" d="M100.5,32.1l18.3,12.8-1.2-22.7-18.3-12.8,1.2,22.7Z"/>
      <path class="st9" d="M137.2,57.7l18.3,12.8-1.2-22.7-18.3-12.8,1.2,22.7Z"/>
      <path class="st9" d="M117.7,22.1l18.3,12.8-1.2-22.7L116.6-.6l1.2,22.7Z"/>
      <path class="st6" d="M154.4,47.7l18.3,12.8-1.2-22.7-18.3-12.8,1.2,22.7Z"/>
      <path class="st9" d="M134.9,12.1l18.3,12.8-1.2-22.7-18.3-12.8,1.2,22.7Z"/>
      <path class="st9" d="M171.6,37.7l18.3,12.8-1.2-22.7-18.3-12.8,1.2,22.7Z"/>
      <path class="st9" d="M152.2,2.7l18.3,12.8-1.2-22.7-18.3-12.8,1.2,22.7Z"/>
      <path class="st9" d="M71,142.1l18.3,12.8-1.2-22.7-18.3-12.8,1.2,22.7Z"/>
      <path class="st9" d="M36.6,162.1l18.3,12.8-1.2-22.7-18.3-12.8,1.2,22.7Z"/>
      <path class="st9" d="M53.8,152.1l18.3,12.8-1.2-22.7-18.3-12.8,1.2,22.7Z"/>
      <path class="st9" d="M19.4,171.6l18.3,12.8-1.2-22.7-18.3-12.8,1.2,22.7Z"/>
      <path class="st9" d="M88.3,132.1l18.3,12.8-1.2-22.7-18.3-12.8,1.2,22.7Z"/>
      <path class="st9" d="M105.5,122.7l18.3,12.8-1.2-22.7-18.3-12.8,1.2,22.7Z"/>
      <path class="st9" d="M122.7,112.7l18.3,12.8-1.2-22.7-18.3-12.8,1.2,22.7Z"/>
      <path class="st9" d="M139.4,102.7l18.3,12.8-1.2-22.7-18.3-12.8,1.2,22.7Z"/>
      <path class="st1" d="M156.6,93.2l18.3,12.8-1.2-22.7-18.3-12.8,1.2,22.7Z"/>
      <path class="st9" d="M173.8,83.2l18.3,12.8-1.2-22.7-18.3-12.8,1.2,22.7Z"/>
      <path class="st9" d="M55.9,197.3l17.7,12.1.7-.4-1-21.5-18.4-12.6,1.1,22.4Z"/>
      <path class="st4" d="M73.2,187.3l17.7,12.1.7-.4-1-21.5-18.4-12.6,1.1,22.4Z"/>
      <path class="st12" d="M158.7,137.9l17.7,12.1.7-.4-1-21.5-18.4-12.6,1,22.4Z"/>
      <path class="st9" d="M175.9,128.4l17.7,12.1.7-.4-1-21.5-18.4-12.6,1,22.4Z"/>
      <path class="st2" d="M90.4,177.3l17.7,12.1.7-.4-1-21.5-18.4-12.6,1,22.4Z"/>
      <path class="st8" d="M107.6,167.3l17.7,12.1.7-.4-1-21.5-18.4-12.6,1.1,22.4Z"/>
      <path class="st10" d="M124.3,157.9l17.7,12.1.7-.4-1-21.5-18.4-12.6,1.1,22.4Z"/>
      <path class="st11" d="M141.5,147.9l17.7,12.1.7-.4-1-21.5-18.4-12.6,1.1,22.4Z"/>
    </g>
  </g>
  <path class="st5" d="M122.5,128.6c-2.7,1-5.8,1.5-9.2,1.5s-7.6-.7-11.3-2.1c-3.8-1.4-7.1-3.5-10.1-6.3l7.5-9c2.1,1.8,4.4,3.2,6.9,4.4,2.5,1.1,5,1.7,7.4,1.7s4.8-.5,6.1-1.5c1.3-1,2-2.4,2-4.1s-.2-1.7-.6-2.3c-.4-.7-.9-1.2-1.7-1.7-.7-.5-1.6-1-2.7-1.4l-3.4-1.5-7.6-3.2c-1.5-.6-2.9-1.4-4.3-2.3-1.4-.9-2.6-2.1-3.7-3.3s-2-2.8-2.6-4.4c-.7-1.7-1-3.6-1-5.7s.5-4.6,1.5-6.7,2.4-3.9,4.3-5.5c1.8-1.6,4-2.8,6.5-3.7,2.5-.9,5.3-1.3,8.3-1.3s6.7.7,10,2c3.3,1.3,6.2,3.2,8.7,5.7l-6.7,8.3c-1.9-1.5-3.8-2.6-5.7-3.4-1.9-.8-4-1.2-6.3-1.2s-4,.5-5.4,1.4c-1.3.9-2,2.2-2,3.9s.2,1.6.7,2.3c.4.6,1.1,1.2,1.9,1.7.8.5,1.7,1,2.8,1.4,1.1.4,2.2.9,3.5,1.5l7.5,3c3.6,1.4,6.4,3.4,8.4,5.9,2,2.5,3.1,5.8,3.1,9.9s-.5,4.7-1.5,6.9c-1,2.2-2.4,4.1-4.3,5.7-1.9,1.6-4.2,2.9-6.9,3.9ZM71.9,128.4c-2.3,1.1-5.1,1.6-8.3,1.6s-8.2-.9-11.2-2.6c-3-1.7-5.5-4.4-7.5-7.9l8.9-6.6c1.1,2,2.3,3.4,3.7,4.4s2.9,1.4,4.4,1.4c2.4,0,4.2-.7,5.4-2.2,1.2-1.5,1.8-4.1,1.8-8v-37.6h13.1v38.7c0,2.8-.4,5.4-1.1,7.9-.7,2.5-1.9,4.7-3.4,6.5-1.5,1.8-3.4,3.3-5.8,4.4Z"/>
</svg>
